X: 18
T: No_112_Tobacco_Dance_Song_(d).krn
N: Derived from No_112_Tobacco_Dance_Song_(d).krn
%%abc-version 2.0
%%abcx-abcm2ps-target-version 5.9.1 (29 Sep 2008)
%%abc-creator hum2abc beta
%%abcx-conversion-date 2019/03/15 08:35:44
%%humdrum-veritas 4085958189
%%humdrum-veritas-data 2983630634
%%linebreak <none>
%%barnumbers 0
L: 1/8
M: 2/4
K: E clef=bass
[K:clef=bass][M:2/4]D3/D/D2 | 
C2(3:2:2CG,G,/(3:2:1G,// | 
G,2G,2 ]|:  
C3/C/C2 | 
B,2(3:2:2CB,G,/(3:2:1G,// | 
G,2G,E, ||  
[M:5/8]G,G,/G,/G,G,E,/ z/ ||  
[M:2/4]G,G,/G,/ E,3/E,/ | 
E,2E, z :|]  



